X: 1033
T: Hicaz-Hümâyûn Aranağme (Düyek)
C: ?
O: Turkey
F: http://compmusic.upf.edu/node/140
N: hicaz-humayun--aranagme--duyek--1--
N: makam= hicaz-humayun
N: form= aranagme
N: usul= duyek = 8/4
M: 8/4
L: 1/16
K: C _7/8B ^c  
Q: 1/4=144
%%MIDI tuningsystem comma53
A2 d2 c2 B2 B2 c2 B2 A2  | .B2 B6 E2 G2 B4  | \
w:  ARANAĞME  |   | 
z2 e2 d2 c2 c2 d2 B2 c2  | 
w:   | 
A8 z2 E2 A2 c2  | d4 c4 z2 d4 e2  | e2 e6 e8  | \
w:   |   |   | 
e4 g8 f2 e2  | e8 fg fe f4  | 
w:   |   | 
z4 f2 f2 f6 f2  | f2 f14  | z2 e4 g2 f2 e2 d2 e2  | c16  | \
w:   |   |   |   | 
e4 d6 c4 B2  | B2 B14  | 
w:   |   | 
e4 d8 B2 c2  | A16  | |


